Papirus/48x48/devices/drive-harddisk-ieee1394.svg

<?xml version="1.0" encoding="UTF-8" standalone="no"?>
<svg xmlns="http://www.w3.org/2000/svg" height="48" width="48" version="1">
 <rect transform="matrix(0,-1,-1,0,0,0)" rx="2" ry="2" height="32" width="40" y="-40" x="-44" fill="#848484"/>
 <path opacity=".1" d="m10 4c-1.108 0-2 0.892-2 2v1c0-1.108 0.892-2 2-2h28c1.108 0 2 0.892 2 2v-1c0-1.108-0.892-2-2-2h-28z" fill="#fff"/>
 <path opacity=".3" d="m16.93 11.748-4.2441 4.2442 1.4141 1.414 4.2441-4.2441-1.4141-1.4141zm14.141 0-4.2422 4.2442 4.2422 4.2422 4.2441-4.2422-4.2441-4.2442zm-11.312 2.8282-4.2422 4.2441 1.4141 1.4141 4.2422-4.2422-1.4141-1.416zm4.241 3.487c-2.7614 0-5 2.2386-5 5s2.2386 5 5 5 5-2.2386 5-5-2.2386-5-5-5zm0 2c1.6569 0 3 1.3431 3 3s-1.3431 3-3 3-3-1.3431-3-3 1.3431-3 3-3zm-3 10v2h6v-2h-6zm0 4v2h6v-2h-6z"/>
 <path opacity=".2" d="m10 45c-1.108 0-2-0.892-2-2v-1c0 1.108 0.892 2 2 2h28c1.108 0 2-0.892 2-2v1c0 1.108-0.892 2-2 2h-28z"/>
</svg>

<svg xmlns="http://www.w3.org/2000/svg" width="48" height="48" version="1">
 <rect style="opacity:0.2" width="40" height="32" x="-45" y="-40" rx="2" ry="2" transform="matrix(0,-1,-1,0,0,0)"/>
 <rect style="fill:#8e8e8e" width="40" height="32" x="-44" y="-40" rx="2" ry="2" transform="matrix(0,-1,-1,0,0,0)"/>
 <path style="fill:#ffffff;opacity:0.2" d="m10 4c-1.108 0-2 0.892-2 2v1c0-1.108 0.892-2 2-2h28c1.108 0 2 0.892 2 2v-1c0-1.108-0.892-2-2-2h-28z"/>
 <g style="opacity:0.5">
  <path d="M 24,18 A 5,5 0 0 0 19,23 5,5 0 0 0 24,28 5,5 0 0 0 29,23 5,5 0 0 0 24,18 Z M 24,20 A 3,3 0 0 1 27,23 3,3 0 0 1 24,26 3,3 0 0 1 21,23 3,3 0 0 1 24,20 Z"/>
  <rect width="6" height="2" x="-3.75" y="-26.25" transform="rotate(135)"/>
  <rect width="6" height="2" x="-3.75" y="-22.25" transform="rotate(135)"/>
  <rect width="6" height="2" x="21" y="30"/>
  <rect width="6" height="2" x="21" y="34"/>
  <rect width="6" height="6" x="-36.25" y="7.75" transform="rotate(-135)"/>
 </g>
</svg>
